!!!!SEGMENT: pl-kc--40102-iii-1-saf--002-015_zielenski-mikolaj--communiones-totius-anni-dominica-nona-post-pentecostes-qui-manducat-meam-carnem.krn
!!!cenid: 16xx:1546
!!!COM: Zieleński, Mikołaj
!!!COM-rismID: pe30013481
!!!CDT: <1611->1611
!!!CNT: Polish
!!!GTL: Communiones totius anni
!!!OTL: Dominica nona post Pentecostes/Qui manducat meam carnem
!!!OMV: 015
!!!PDT: 1611
!!!AGN:
!!!SMS-siglum: PL-Kc
!!!SMS-shelfmark: 40102 III/1 Saf.
!!!SMS-shelfwork: 002-015 G
!!!SMS-variant:
!!!SMS-altvar:
!!!NIFC-rismSourceID: 990069887
!!!NIFC-rismChildID: 990069887
!!!NIFC-islandoraID: none
!!!URL-pdf-islandora:
!!!URL-scan: https://cyfrowe.mnk.pl/dlibra/publication/24235/edition/23926/content?ref=desc @EN{Scan on The National Museum in Krakow Website} @PL{Skany w portalu Biblioteka Cyfrowa Muzeum Narodowego w Krakowie}
!!!ONB-nifc: UWAGA: str. 52. Uwaga: W xml metrum 2/1 do źródłowego C| i odpowiednio 3/1 do 3/2
!!!AIN: 2 organ
!!!key: C:ion
**kern	**kern
*group1	*group1
*part2	*part1
*staff2	*staff1
*I""Organo	*
*Iorgan	*Iorgan
*ICklav	*ICklav
*clefC3	*clefC1
*k[b-]	*k[b-]
*C:ion	*C:ion
*M2/1	*M2/1
*met(C|)	*met(C|)
=1	=1
!LO:TX:a:t=Qui manducat meam carnem.	!LO:TX:a:t=15. Dominica nona poſt Pentecoſtes. Solus Cantus canet.
!LO:TX:t=P:problem=all/middle&colon; global	!LO:TX:t=P:problem=all/middle&colon; global
!LO:TX:t=P:problem=all\middle&colon; global	!LO:TX:t=P:problem=all/middle&colon; global
1f	1r
2e\	1cc
2f\	.
=2-	=2-
!	!LO:N:acc=#
2d\	2bn\
2e\	2cc\
2f\	2a\
4e\	2b\
4d\	.
=3	=3
1B-	2cc\
.	1g
!LO:N:acc=#	!
2Bn/	.
2c/	2g/
=4-	=4-
2A/	2cc\
2B-y/	4b-\
.	4a\
1c	4g/
.	4f/
.	2g/
=5	=5
*clefF4	*
*k[b-]	*
1F	2a\
.	2.cc\
2E\	.
.	4b-\
2F\	2.a\
=6-	=6-
2D/	.
.	8g/
.	8f/
2E\	2g/
2F\	2.a\
2FF/	.
.	8g/
.	8f/
=7	=7
1C	4e/
.	4f/
.	2g/
2.F\	2c/
.	1f/
4E\	.
=8-	=8-
4D/	.
4C/	.
2BB-/	2g/
2AA/	2a\
2BB-/	2f/
=9	=9
2GG/	1b-
2.D/	.
.	1.a
4E\	.
4F\	.
4G\	.
=10-	=10-
2A\	.
2AA/	2a\
2.D/	2a\
.	[<2dd\
4C/	.
=11	=11
1BB-	2dd\]
.	4cc\
.	4b-\
2.F\	4a\
.	4g\
.	4a\
8E\	4b-\
8D\	.
=12-	=12-
0C	2cc\
.	2a\
.	1g
=13	=13
1FF	2f/
.	2a\
2c\	2g/
2F\	2a\
=14-	=14-
2E\	2r
2F\	2cc\
!	!LO:N:acc=#
2r	2bn\
2C/	2cc\
=15	=15
!LO:N:acc=#	!
2BBn/	2r
2C/	2.cc\
4r	.
2D/	2a\
4AA/	4cc\
=16-	=16-
2BB-y/	4b-\
.	8a\
.	8g\
2BB-/	4f/
.	4g/
4FF/	2a\
4FF/	.
2C/	[y2g/
=17	=17
!	!LO:N:xstem:cue
2GG/	4g]
.	8f/
.	8e/
2GG/	4d/
.	4e/
2D/	4f/
.	4g/
[<2F\	4a\
.	4b-\
*custos:F	*custos:cc
!LO:LB:g=original	!LO:LB:g=original
=18-	=18-
2F\]	4cc\
.	4a\
2C/	2.cc\
2G\	.
!	!LO:N:acc=#
.	8bn\
.	8a\
2GG/	2b\
=19	=19
2C/	2cc\
2r	2g/
2A\	4r
.	2cc\
2G\	.
.	4b-\
=20-	=20-
4r	2a\
2F\	.
.	2g/
4E\	.
2D/	4r
.	2f/
2C/	.
.	4e/
=21	=21
2G\	2d/
4C/	4.e/
4C/	.
.	8e/
2BB-/	4f/
.	8e/
.	8d/
4AA/	4c/
4FF/	4d/
=22-	=22-
1C	4e/
.	2f/
.	4e/
1FF	2f/
.	[y2cc\
=23	=23
!	!LO:N:xstem:cue
4.G\	4cc\]
.	4b-\
8G\	.
4A\	2a\
4F\	.
4r	1g
2C/	.
4BB-/	.
=24-	=24-
2AA/	4e/
.	4f#X/
4GG/	2g/
4G\	.
2F\	4.a\
.	8a\
!	!LO:N:acc=#
4E\	4bn\
4C/	4cc\
=25	=25
2G\	4cc\
!	!LO:N:acc=#
.	8bn\
.	8a\
2GG/	2b\
1C	2.cc\
.	4b\
=26-	=26-
4A\	2a\
4F\	.
4.c\	2g/
8B-\	.
4A\	1f
2BB-/	.
4AA/	.
=27	=27
2GG/	4d/
.	4e/
2.D/	4f/
.	4g/
.	2a\
2F\	.
.	4b-\
4E\	4cc\
=28-	=28-
2D/	2dd\
4C/	4g/
4GG/	2b-\
2D/	.
.	4a\
4BB-/	2dd\
4BB-/	.
=29	=29
2F\	2.cc\
4C/	.
4GG/	4b-\
2.AA/	2.a\
4BB-/	8g/
.	8f/
=30-	=30-
1C	8e/
.	8c/
.	2f/
.	4e/
2FF/	2.f/
[>2F\	.
.	4g/
=31	=31
2F\]	4a\
.	4b-\
2C/	2cc\
2.D/	2a\
.	1dd\
4E\	.
=32-	=32-
1F	.
.	2.cc\
1C	.
.	4b-\
.	4a\
.	4g/
=33	=33
2r	4f/
.	4d/
1D	4f/
.	4g/
.	4a\
.	4b-\
2AA/	1cc\
=34-	=34-
0BB-	.
.	4b-\
.	4a\
.	4b-\
.	4f/
.	4b-\
.	4cc\
=35-	=35-
1BB-	2dd\
.	2b-\
[1Fl\	[1ccl\
=36-	=36-
0F]	0cc]
==	==
*-	*-
!!!system-decoration: g1
!!!RDF**kern: l = terminal long
!!!RDF**kern: > = above
!!!RDF**kern: < = below
!!!ENC: Andrzej Gręziak
!!!END: 2021-12-18
!!!EED: Jędrzej Mróz
!!!EEV: 2021-12-23
!!!YEC: Copyright 2022 Narodowy Instytut Fryderyka Chopina (https://polishscores.org)
!!!YEM: License CC-BY-4.0 (https://creativecommons.org/licenses/by/4.0)
